!!!OTL: Nur vorsichtig (74), S. 210
!!!id: T0224
**kern
*clefG2
*k[f#c#g#]
*A:
{4a
=1
4e
4e
4e
4a
=2
4f#
4f#
4f#}
=3
{4f#
=4
4e
4a
4cc#
4a
=5
2a}
4r
=6
{4e
=7
4cc#
4cc#
4cc#
4ee
=8
4dd
4b
4b}
=9
{4e
=10
4dd
4dd
8dd
8cc#
4dd
=11
4ee
4cc#
4a}
=12
{4a
=13
4a
4a
4cc#
4a
=14
4f#
4d
4d}
=15
{4d
=16
8c#
8e
4a
4dd
4g#
=17
2a}
4r
==
*-
!!!minrhy: 8
!!!meters: 4/4 ]  ZZ[6
!!!cut: Nur vorsichtig (74), S. 210
!!!reg: Luxemburg
!!!trd: Singendes Volk, Esch-Alzette 1937 posth.
!!!rhy1: X_  X_X_X_X_  X_X_X_   (x2)
!!!rhy2: X_  X_X_X_X_  X__0
!!!key: T0224  08  A 4/4 ]  ZZ[6
!!!mod: HEPTATONIK IONISCH]  AMBITUS[10b
!!!kad: -6121-41
!!!akz: -5-5-6-6_-531_3342_4451_13-6-4_-341_
!!!fot: 'a__b__c__as"d__e__
!!!for: 'a__aw_a__b__a__c__
!!!fok: '\__^a_^a_^a_^d_^a_
!! PHRAS[AUFTAKTIG]
!!!fkt: Liebeslieder
!!!bem: StraPen, fff Witry, 10.1.1933
!! THILL, Mathias:
!! PR[35] 2K[0] 2G[11] 3K[7] 3G[4] 4A[7] 4Ü[0] 5A[0] 6K[0] 6G[0]
!! 7K[0] 7G[0] 8A[0] MEHR[0] SI[29] ABS[55] SR[11] SP[18]
!! ST[12] 2k[4] 2g[22] 3k[7] 3g[2] 4d[2] 4ü[0] 5d[0] 6k[0] 6g[0]
!! 7k[0] 7g[0] 8d[0] mehr[0] si[36] dm[-7] sr[25] sp[11]
!! 1F[17] 2F[60] 3F[16] 4F[3] LF[0] 2P[0] 3P[3] 4P[0] TRI[0] DF[5] AB[58]
!! TF[0] U3K[0] U3[0] U4[0] U4Ü[0] U5[7] U6K[0] U6[0] U7K[0] U7[0]
!! N1[20] N2K[0] N2[18] N3K[0] N3[23] N4[5] N4Ü[0] N5[25] N6K[0] N6[2]
!!!n7k: 0] N7[0] O1[0] O2K[0] O2[0] O3K[0] O3[0] HÖ[0
